X: 062180
T: Father Quinn's
S: Boston CCE newsletter (Sept/Oct 06)
L: 1/8
M: 6/8
R: jig
Q: 1/4=170
K: Em
A | B3 BAF | (3B^cd B BAF | AFE DB,A, | DFA BAF |
B3 BAF | (3B^cd B BAF | AFE DB,A, | B,EE E2 :|
B | e3 Beg | bge gfe | d3 edB | AFE DEF | 
GBG FAF | E3 EDB, | DFA d^cd | BAF E2 :|
